assets/Motorized wheelchair/Flat/motorized_wheelchair_flat.svg

<svg width="32" height="32" viewBox="0 0 32 32" fill="none" xmlns="http://www.w3.org/2000/svg">
<path d="M21.232 11.0453C20.9257 10.5857 20.3048 10.4616 19.8453 10.7679C19.3858 11.0743 19.2616 11.6951 19.5679 12.1547L22.6132 16.2227C22.9196 16.6822 23.5405 16.8064 24 16.5C24.4595 16.1936 24.5837 15.5728 24.2773 15.1132L21.232 11.0453ZM18 18H16V21H18V18ZM26 18H24.01V21H26V18Z" fill="#9B9B9B"/>
<path d="M19.42 6.66003V6.67003H19.41L19.42 6.66003Z" fill="#F92F60"/>
<path d="M20.7785 13H15.2215C14.5407 13 14 12.4482 14 11.7759V11.2241C14 10.5418 14.5507 10 15.2215 10H20.7785C21.4593 10 22 10.5518 22 11.2241V11.7759C22 12.4482 21.4493 13 20.7785 13Z" fill="#533566"/>
<path d="M25 17.99C25.5468 17.99 25.99 17.5468 25.99 17C25.99 16.4533 25.5468 16.01 25 16.01C24.4533 16.01 24.01 16.4533 24.01 17C24.01 17.5468 24.4533 17.99 25 17.99Z" fill="#433B6B"/>
<path d="M26 2C24.89 2 24 2.95 24 4.5C24 5.08 24.15 5.56 24.5 6C23.87 6.9 23.22 9.06 23 13C23 13 23 13.96 23 15H14.1C13.49 15 12.99 15.5 12.99 16.11V17.9C12.99 18.51 13.49 19.01 14.1 19.01H25.59C26.39 19.01 27.06 18.41 27.15 17.62L29 3C29 2.5 28.55 2.00999 28 2.00999H26V2Z" fill="#5092FF"/>
<path d="M16.59 20H16.69V20.01H26.74C27.43 20.01 27.99 20.57 27.99 21.26V25.75C27.99 26.44 27.43 27 26.74 27H25.6632C25.1015 28.1825 23.8962 29 22.5 29C21.1038 29 19.8985 28.1825 19.3368 27H16.69H16.59H12.31C11.59 27 11 26.41 11 25.69V25.59C11 22.5 13.5 20 16.59 20Z" fill="#321B41"/>
<path d="M6.5 30C7.88071 30 9 28.8807 9 27.5C9 26.1193 7.88071 25 6.5 25C5.11929 25 4 26.1193 4 27.5C4 28.8807 5.11929 30 6.5 30Z" fill="#533566"/>
<path d="M22.5 30C24.9853 30 27 27.9853 27 25.5C27 23.0147 24.9853 21 22.5 21C20.0147 21 18 23.0147 18 25.5C18 27.9853 20.0147 30 22.5 30ZM22.5 28C21.1193 28 20 26.8807 20 25.5C20 24.1193 21.1193 23 22.5 23C23.8807 23 25 24.1193 25 25.5C25 26.8807 23.8807 28 22.5 28ZM8 27.5C8 28.3284 7.32843 29 6.5 29C5.67157 29 5 28.3284 5 27.5C5 26.6716 5.67157 26 6.5 26C7.32843 26 8 26.6716 8 27.5Z" fill="#D3D3D3"/>
<path d="M13.9808 25.3626C14.0566 25.6282 13.9029 25.9049 13.6374 25.9808L6.63737 27.9808C6.37185 28.0566 6.09511 27.9029 6.01924 27.6374C5.94338 27.3718 6.09713 27.0951 6.36265 27.0192L13.3626 25.0192C13.6282 24.9434 13.9049 25.0971 13.9808 25.3626Z" fill="#9B9B9B"/>
</svg>

<svg xmlns="http://www.w3.org/2000/svg" width="32" height="32" fill="none"><path fill="#9B9B9B" d="M21.232 11.045a1 1 0 1 0-1.664 1.11l3.045 4.068a1 1 0 0 0 1.664-1.11l-3.045-4.068ZM18 18h-2v3h2v-3Zm8 0h-1.99v3H26v-3Z"/><path fill="#F92F60" d="M19.42 6.66v.01h-.01l.01-.01Z"/><path fill="#533566" d="M20.779 13h-5.557C14.54 13 14 12.448 14 11.776v-.552c0-.682.55-1.224 1.222-1.224h5.557c.68 0 1.221.552 1.221 1.224v.552c0 .672-.55 1.224-1.221 1.224Z"/><path fill="#433B6B" d="M25 17.99a.99.99 0 1 0 0-1.98.99.99 0 0 0 0 1.98Z"/><path fill="#5092FF" d="M26 2c-1.11 0-2 .95-2 2.5 0 .58.15 1.06.5 1.5-.63.9-1.28 3.06-1.5 7v2h-8.9c-.61 0-1.11.5-1.11 1.11v1.79c0 .61.5 1.11 1.11 1.11h11.49c.8 0 1.47-.6 1.56-1.39L29 3c0-.5-.45-.99-1-.99h-2V2Z"/><path fill="#321B41" d="M16.59 20h.1v.01h10.05c.69 0 1.25.56 1.25 1.25v4.49c0 .69-.56 1.25-1.25 1.25h-1.077a3.5 3.5 0 0 1-6.326 0H12.31c-.72 0-1.31-.59-1.31-1.31v-.1C11 22.5 13.5 20 16.59 20Z"/><path fill="#533566" d="M6.5 30a2.5 2.5 0 1 0 0-5 2.5 2.5 0 0 0 0 5Z"/><path fill="#D3D3D3" d="M22.5 30a4.5 4.5 0 1 0 0-9 4.5 4.5 0 0 0 0 9Zm0-2a2.5 2.5 0 1 1 0-5 2.5 2.5 0 0 1 0 5ZM8 27.5a1.5 1.5 0 1 1-3 0 1.5 1.5 0 0 1 3 0Z"/><path fill="#9B9B9B" d="M13.98 25.363a.5.5 0 0 1-.343.618l-7 2a.5.5 0 0 1-.274-.962l7-2a.5.5 0 0 1 .618.344Z"/></svg>
